assets/images/footer-img3.svg

<svg width="29" height="12" viewBox="0 0 29 12" fill="none" xmlns="http://www.w3.org/2000/svg">
<g id="logos:google-pay" clip-path="url(#clip0_78_389)">
<path id="Vector" d="M20.5564 3.23868C21.3536 3.23868 21.9697 3.4645 22.4409 3.91615C22.9119 4.36774 23.1293 4.96991 23.1293 5.72262V9.33556H22.1147V8.50768H22.0784C21.6436 9.18515 21.0275 9.52385 20.3027 9.52385C19.6867 9.52385 19.1431 9.33562 18.7082 8.95932C18.3096 8.58297 18.0559 8.05609 18.0559 7.49156C18.0559 6.88938 18.2734 6.40009 18.7082 6.02374C19.1431 5.64738 19.7592 5.49685 20.4839 5.49685C21.1362 5.49685 21.6436 5.6098 22.0422 5.87321V5.6098C22.0422 5.2585 21.9159 4.90727 21.6634 4.67838L21.6073 4.63127C21.3174 4.3678 20.955 4.21727 20.5564 4.21727C19.9404 4.21727 19.4693 4.48074 19.1431 5.00762L18.2009 4.40533C18.7807 3.61497 19.5417 3.23868 20.5564 3.23868ZM15.4468 0.679502C16.097 0.679502 16.715 0.914502 17.209 1.35274L17.295 1.43215C17.8023 1.8838 18.0559 2.56127 18.0559 3.27633C18.0559 3.99138 17.8023 4.63121 17.295 5.12044C16.7876 5.60974 16.1715 5.87315 15.4468 5.87315L13.7073 5.8355V9.33562H12.6201V0.679443L15.4468 0.679502ZM20.7013 6.40009C20.2665 6.40009 19.9041 6.51297 19.6142 6.7388C19.3243 6.92697 19.1793 7.19038 19.1793 7.52909C19.1793 7.83021 19.3243 8.09362 19.5417 8.24421C19.7954 8.43238 20.0853 8.54527 20.3752 8.54527C20.7811 8.54527 21.187 8.38132 21.5044 8.08409L21.5711 8.01838C21.9335 7.67968 22.1147 7.26568 22.1147 6.81403C21.7885 6.55062 21.3174 6.40003 20.7014 6.40003L20.7013 6.40009ZM15.5193 1.73327H13.7073V4.74415H15.5193C15.9178 4.74415 16.3165 4.59362 16.5702 4.29256C17.15 3.72803 17.15 2.78715 16.6064 2.22256L16.5702 2.18491C16.2802 1.88386 15.9178 1.69568 15.5192 1.73333L15.5193 1.73327ZM29 3.42685L25.4124 11.9701H24.3252L25.666 8.99691L23.3105 3.4645H24.4702L26.1734 7.71727H26.2096L27.8766 3.4645H29V3.42685Z" fill="#5F6368"/>
<path id="Vector_2" d="M9.39482 5.08277C9.39482 4.74406 9.35857 4.40536 9.32232 4.06665H4.7926V5.98606H7.3655C7.25681 6.58818 6.93067 7.15271 6.42334 7.49147V8.73341H7.98158C8.88755 7.86783 9.39488 6.58818 9.39488 5.08283L9.39482 5.08277Z" fill="#4285F4"/>
<path id="Vector_3" d="M4.79262 9.93764C6.09717 9.93764 7.18433 9.486 7.9816 8.73329L6.42336 7.49135C5.98847 7.79241 5.44489 7.98059 4.79262 7.98059C3.56046 7.98059 2.4733 7.115 2.11091 5.91064H0.516479V7.19023C1.34995 8.88382 2.98069 9.93764 4.79262 9.93764Z" fill="#34A853"/>
<path id="Vector_4" d="M2.11087 5.91067C1.89348 5.30849 1.89348 4.63108 2.11087 3.99126V2.71167H0.516435C-0.172145 4.1042 -0.172145 5.76014 0.516435 7.19026L2.11087 5.91067Z" fill="#FBBC04"/>
<path id="Vector_5" d="M4.79256 1.95908C5.48108 1.95908 6.13336 2.22255 6.64074 2.71178L8.01779 1.28167C7.14802 0.453667 5.98841 -0.0355682 4.82875 0.00202003C3.01682 0.00202003 1.34989 1.05584 0.552612 2.74943L2.1471 4.02902C2.47324 2.82467 3.5604 1.95908 4.79256 1.95908Z" fill="#EA4335"/>
</g>
<defs>
<clipPath id="clip0_78_389">
<rect width="29" height="12" fill="white"/>
</clipPath>
</defs>
</svg>

<svg width="29" height="12" fill="none" xmlns="http://www.w3.org/2000/svg"><g clip-path="url(#a)"><path d="M20.556 3.239c.798 0 1.414.226 1.885.677.47.452.688 1.054.688 1.807v3.613h-1.014v-.828h-.037c-.434.677-1.05 1.016-1.775 1.016-.616 0-1.16-.188-1.595-.565a2.034 2.034 0 0 1-.652-1.467c0-.603.217-1.092.652-1.468.435-.377 1.051-.527 1.776-.527.652 0 1.16.113 1.558.376V5.61c0-.352-.126-.703-.379-.932l-.056-.047a1.546 1.546 0 0 0-1.05-.414c-.617 0-1.088.264-1.414.79l-.942-.602c.58-.79 1.34-1.166 2.355-1.166Zm-5.11-2.56a2.64 2.64 0 0 1 1.763.674l.086.08c.507.45.76 1.128.76 1.843 0 .715-.253 1.355-.76 1.844a2.58 2.58 0 0 1-1.848.753l-1.74-.038v3.5H12.62V.68h2.827ZM20.702 6.4c-.434 0-.797.113-1.087.339a.892.892 0 0 0-.435.79c0 .301.145.565.363.715.253.188.543.301.833.301.406 0 .812-.164 1.13-.46l.066-.067c.362-.338.544-.752.544-1.204-.326-.263-.798-.414-1.414-.414ZM15.52 1.733h-1.812v3.011h1.812c.399 0 .798-.15 1.051-.451.58-.565.58-1.506.036-2.07l-.036-.038c-.29-.301-.652-.49-1.05-.452ZM29 3.427l-3.588 8.543h-1.087l1.341-2.973-2.355-5.532h1.16l1.702 4.252h.037l1.667-4.252H29v-.038Z" fill="#5F6368"/><path d="M9.395 5.083a9.36 9.36 0 0 0-.073-1.016h-4.53v1.92h2.574c-.11.601-.435 1.166-.943 1.504v1.242h1.559c.906-.865 1.413-2.145 1.413-3.65Z" fill="#4285F4"/><path d="M4.793 9.938c1.304 0 2.391-.452 3.189-1.205L6.423 7.491c-.435.301-.978.49-1.63.49-1.233 0-2.32-.866-2.682-2.07H.516v1.28c.834 1.693 2.465 2.747 4.277 2.747Z" fill="#34A853"/><path d="M2.11 5.91a2.905 2.905 0 0 1 0-1.919v-1.28H.517c-.688 1.393-.688 3.05 0 4.48l1.595-1.28Z" fill="#FBBC04"/><path d="M4.793 1.96c.688 0 1.34.263 1.848.752l1.377-1.43c-.87-.828-2.03-1.318-3.19-1.28-1.81 0-3.478 1.054-4.274 2.747l1.594 1.28c.326-1.204 1.413-2.07 2.646-2.07Z" fill="#EA4335"/></g><defs><clipPath id="a"><path fill="#fff" d="M0 0h29v12H0z"/></clipPath></defs></svg>
